public/primaries/Download.svg

<svg id="Layer_1" data-name="Layer 1" xmlns="http://www.w3.org/2000/svg" width="64" height="64" viewBox="0 0 64 64">
  <defs>
    <style>
      .cls-1 {
        fill-rule: evenodd;
      }
    </style>
  </defs>
  <title>Icons 100</title>
  <path class="cls-1" d="M46,42H40a2,2,0,0,1,0-4h5.9055A8.0584,8.0584,0,0,0,54,30.0726c0.0379-5.3775-4.1326-7.2267-6.5892-8.0641a1.9925,1.9925,0,0,1-1.3418-1.7031l-0.1019-1.0818a10.1062,10.1062,0,0,0-9.83-9.2228c-4.6679-.0543-7.12,2.6776-8.7069,4.6832a1.9932,1.9932,0,0,1-1.9932.6961,9.8162,9.8162,0,0,0-2.6345-.377,6.0048,6.0048,0,0,0-5.7914,5.8712L16.9792,22.178a1.987,1.987,0,0,1-1.2545,1.8067C13.1318,25,9.8379,26.6441,10.0062,31.3422A6.97,6.97,0,0,0,17,38h7a2,2,0,0,1,0,4H17a10.9949,10.9949,0,0,1-3.9877-21.2432A9.9832,9.9832,0,0,1,25.1,11.2248,13.9913,13.9913,0,0,1,49.933,18.6729,11.9941,11.9941,0,0,1,46,42ZM25.0177,45.9892H30V26a2,2,0,1,1,4,0V45.9892h4.9951a1.0273,1.0273,0,0,1,.8191,1.6225l-6.9888,9.9741a0.9955,0.9955,0,0,1-1.6381,0l-6.9888-9.9741A1.0274,1.0274,0,0,1,25.0177,45.9892Z"/>
</svg>

<svg id="Layer_1" data-name="Layer 1" xmlns="http://www.w3.org/2000/svg" width="64" height="64" viewBox="0 0 64 64"><defs><style>.cls-1{fill-rule:evenodd}</style></defs><title>Icons 100</title><path class="cls-1" d="M46 42h-6a2 2 0 0 1 0-4h5.905A8.058 8.058 0 0 0 54 30.073c.038-5.378-4.133-7.227-6.59-8.064a1.992 1.992 0 0 1-1.341-1.704l-.102-1.081A10.106 10.106 0 0 0 36.137 10c-4.668-.054-7.12 2.677-8.707 4.683a1.993 1.993 0 0 1-1.993.696 9.816 9.816 0 0 0-2.634-.377 6.005 6.005 0 0 0-5.792 5.871l-.032 1.304a1.987 1.987 0 0 1-1.254 1.807c-2.593 1.015-5.887 2.66-5.719 7.357A6.97 6.97 0 0 0 17 38h7a2 2 0 0 1 0 4h-7a10.995 10.995 0 0 1-3.988-21.243A9.983 9.983 0 0 1 25.1 11.225a13.991 13.991 0 0 1 24.833 7.448A11.994 11.994 0 0 1 46 42zm-20.982 3.99H30V26a2 2 0 1 1 4 0v19.99h4.995a1.027 1.027 0 0 1 .82 1.622l-6.99 9.974a.996.996 0 0 1-1.638 0l-6.989-9.974a1.027 1.027 0 0 1 .82-1.623z"/></svg>
